src/images/icon-char-2.v2.svg

<svg width="65" height="48" viewBox="0 0 65 48" fill="none" xmlns="http://www.w3.org/2000/svg">
<path d="M19.4001 37.6001V36.8001H21.0001V43.6001H19.4001V42.9001C18.9001 43.5001 18.2001 43.8001 17.4001 43.8001C16.4001 43.8001 15.6001 43.4001 15.0001 42.7001C14.4001 42.0001 14.1001 41.1001 14.1001 40.2001C14.1001 39.1001 14.4001 38.3001 15.1001 37.6001C15.7001 37.0001 16.5001 36.6001 17.4001 36.6001C18.3001 36.6001 18.9001 36.9001 19.4001 37.6001ZM17.6001 38.0001C17.0001 38.0001 16.6001 38.2001 16.2001 38.6001C15.9001 39.0001 15.7001 39.5001 15.7001 40.1001C15.7001 40.7001 15.9001 41.2001 16.2001 41.6001C16.5001 42.0001 17.0001 42.2001 17.6001 42.2001C18.1001 42.2001 18.6001 42.0001 19.0001 41.6001C19.4001 41.2001 19.6001 40.7001 19.6001 40.0001C19.6001 39.3001 19.4001 38.8001 19.0001 38.4001C18.6001 38.2001 18.1001 38.0001 17.6001 38.0001Z" fill="#003067"/>
<path d="M23 33.8H24.6V43.6H23V33.8Z" fill="#003067"/>
<path d="M31.5002 37.6001V36.8001H33.1002V43.6001H31.5002V42.9001C31.0002 43.5001 30.3002 43.8001 29.5002 43.8001C28.5002 43.8001 27.7002 43.4001 27.1002 42.7001C26.5002 42.0001 26.2002 41.1001 26.2002 40.2001C26.2002 39.1001 26.5002 38.3001 27.2002 37.6001C27.9002 36.9001 28.6002 36.6001 29.5002 36.6001C30.4002 36.6001 31.0002 36.9001 31.5002 37.6001ZM29.7002 38.0001C29.1002 38.0001 28.7002 38.2001 28.3002 38.6001C27.9002 39.0001 27.8002 39.5001 27.8002 40.1001C27.8002 40.7001 28.0002 41.2001 28.3002 41.6001C28.6002 42.0001 29.1002 42.2001 29.7002 42.2001C30.2002 42.2001 30.7002 42.0001 31.1002 41.6001C31.5002 41.2001 31.7002 40.7001 31.7002 40.0001C31.7002 39.3001 31.5002 38.8001 31.1002 38.4001C30.7002 38.2001 30.3002 38.0001 29.7002 38.0001Z" fill="#003067"/>
<path d="M35.1001 43.6001V36.8001H36.7001V37.4001C36.9001 37.2001 37.1001 37.0001 37.4001 36.8001C37.7001 36.6001 38.0001 36.6001 38.4001 36.6001C38.9001 36.6001 39.3001 36.7001 39.6001 36.9001L39.0001 38.3001C38.7001 38.1001 38.5001 38.1001 38.2001 38.1001C37.8001 38.1001 37.5001 38.2001 37.2001 38.5001C36.9001 38.8001 36.8001 39.3001 36.8001 40.1001V43.6001H35.1001Z" fill="#003067"/>
<path d="M40.5 43.6001V36.8001H42V37.4001C42.4 36.9001 43 36.6001 43.7 36.6001C44.5 36.6001 45.1 36.9001 45.5 37.6001C46 36.9001 46.6 36.6001 47.5 36.6001C48.4 36.6001 49 37.0001 49.4 37.7001C49.6 38.1001 49.8 38.7001 49.8 39.4001V43.6001H48.2V39.9001C48.2 39.3001 48.2 38.9001 48.1 38.7001C47.9 38.3001 47.6 38.1001 47.2 38.1001C46.8 38.1001 46.5 38.3001 46.3 38.6001C46.1 38.9001 46 39.4001 46 40.1001V43.6001H44.4V39.9001C44.4 39.3001 44.4 38.9001 44.3 38.7001C44 38.2001 43.7 38.0001 43.3 38.0001C42.9 38.0001 42.6 38.2001 42.4 38.5001C42.2 38.8001 42.1 39.3001 42.1 40.0001V43.5001H40.5V43.6001Z" fill="#003067"/>
<path d="M39.9001 30C34.7001 30 29.5 30 24.3 30C24.3 29.9 24.3 29.7 24.3 29.6C24.3 27.2 24.3 24.7 24.3 22.3C24.3 17.5 28.2 14 33 14.4C36.7 14.7 39.9 18 40 21.8C40.1 24.5 40 27.1 40 29.8C39.9 29.8 39.9001 29.9 39.9001 30Z" stroke="#003067" stroke-miterlimit="10"/>
<path d="M31.8001 17.9C29.6001 18 27.7001 19.9 27.6001 22.2C27.6001 22.7 27.9001 23 28.3001 23C28.7001 23 29.0001 22.7 29.1001 22.2C29.2001 20.6 30.3001 19.5 31.9001 19.4C32.0001 19.4 32.2001 19.4 32.3001 19.3C32.6001 19.1 32.8001 18.8 32.7001 18.5C32.6001 18 32.4001 17.8 31.8001 17.9Z" fill="#003067"/>
<path d="M32.7001 10.5C32.7001 11 32.7001 11.5 32.7001 12.1C32.7001 12.6 32.4 12.8 32 12.8C31.6 12.8 31.3 12.5 31.3 12.1C31.3 11.1 31.3 9.99995 31.3 8.99995C31.3 8.49995 31.6 8.19995 32 8.19995C32.4 8.19995 32.7001 8.49995 32.7001 8.99995C32.8001 9.39995 32.7001 9.99995 32.7001 10.5Z" fill="#003067"/>
<path d="M44.3001 15.6C44.2001 15.7 44.1001 15.9 43.9001 16.1C43.0001 16.7 42.0001 17.2 41.1001 17.7C40.7001 17.9 40.3001 17.8 40.2001 17.5C40.0001 17.2 40.1001 16.8 40.5001 16.6C41.4001 16.1 42.3001 15.5 43.3001 15C43.7001 14.6 44.3001 14.9 44.3001 15.6Z" fill="#003067"/>
<path d="M27.7999 13.4C27.7999 13.8 27.5999 14 27.2999 14.1C26.9999 14.2 26.7 14.1 26.5 13.8C26.1 13.2 25.8 12.6 25.5 12C25.3 11.7 25.1 11.3 24.9 11C24.7 10.6 24.8 10.2 25.1 10C25.4 9.80002 25.8 9.90002 26 10.3C26.5 11.2 27.1 12.1 27.6 13.1C27.7 13.2 27.7999 13.3 27.7999 13.4Z" fill="#003067"/>
<path d="M38.6 9.90002C39.2 9.90002 39.6 10.4 39.3 10.8C38.8 11.8 38.2 12.8 37.6 13.7C37.4 14 37 14.1 36.7 13.9C36.4 13.7 36.3 13.3 36.5 13C37 12 37.6 11.1 38.2 10.1C38.3 10.1 38.5 10 38.6 9.90002Z" fill="#003067"/>
<path d="M20.7 14.8C20.8 14.8 20.9 14.8 21 14.9C21.9 15.4 22.9 16 23.8 16.5C24.1 16.7 24.2 16.9 24.1 17.2C24 17.4 23.8 17.6 23.6 17.7C23.5 17.8 23.2 17.7 23.1 17.7C22.1 17.2 21.2 16.6 20.2 16C19.9 15.8 19.8 15.5 19.9 15.2C20.1 15 20.3 14.8 20.7 14.8Z" fill="#003067"/>
<path d="M57.0999 37.8L52.0999 35.9V36L52.1999 35.9V36L52.2999 35.9C52.2999 35.9 52.1999 35.8 52.1999 35.6C52.0999 35.4 52.0999 35.2 52.0999 35V17.3C52.0999 17.1 52.0999 16.9 52.1999 16.9L52.0999 16.8V17H52.1999L52.0999 16.9V17.1V16.9L51.9999 17.1H52.0999V16.9L51.9999 17.1L56.9999 19L57.2999 18.2L52.2999 16.4L51.7999 16C51.5999 16 51.4999 16.1 51.2999 16.2C50.9999 16.5 50.8999 16.9 50.8999 17.3V35.2C50.8999 35.5 50.9999 35.9 51.0999 36.1C51.1999 36.4 51.3999 36.6 51.6999 36.8L56.6999 38.6L57.0999 37.8Z" fill="#999999"/>
<path d="M56.8999 13.1H56.3999V46.1C56.3999 46.7 56.8999 47.1 57.3999 47.1H61.2999C61.7999 47.1 62.2999 46.6 62.2999 46.1V13.1C62.2999 12.5 61.7999 12.1 61.2999 12.1H57.3999C56.8999 12.1 56.3999 12.6 56.3999 13.1H57.2999L57.3999 13H61.2999L61.3999 13.1V46.1L61.2999 46.2H57.3999L57.2999 46.1V13.1H56.8999Z" fill="#999999"/>
<path d="M7.49995 38.6L12.5 36.8C12.9 36.6 13 36.4 13.1 36.1C13.2 35.8 13.3 35.5 13.3 35.2V17.3C13.3 17 13.3 16.7 13.1 16.5L12.9 16.2C12.8 16.1 12.6 16 12.4 16H12.2L7.19995 17.8L7.49995 18.6L12.5 16.7L12.4 16.5V16.7H12.5L12.4 16.5V16.7V16.5L12.3 16.7H12.4V16.5L12.3 16.7C12.3 16.7 12.4 16.9 12.4 17.2V35.1C12.4 35.3 12.3 35.6 12.3 35.7L12.2 35.9V36V35.9V36V35.9L7.19995 37.8L7.49995 38.6Z" fill="#999999"/>
<path d="M6.7999 12.5V12H2.8999C2.3999 12 1.8999 12.5 1.8999 13V46C1.8999 46.6 2.3999 47 2.8999 47H6.7999C7.2999 47 7.7999 46.5 7.7999 46V13C7.7999 12.4 7.2999 12 6.7999 12V13L6.8999 13.1V46.1L6.7999 46.2H2.8999L2.7999 46.1V13.1L2.8999 13H6.7999V12.5Z" fill="#999999"/>
</svg>

<svg xmlns="http://www.w3.org/2000/svg" width="65" height="48" fill="none" viewBox="0 0 65 48">
	<path fill="#003067" d="M19.4 37.6v-.8H21v6.8h-1.6v-.7c-.5.6-1.2.9-2 .9-1 0-1.8-.4-2.4-1.1-.6-.7-.9-1.6-.9-2.5 0-1.1.3-1.9 1-2.6.6-.6 1.4-1 2.3-1 .9 0 1.5.3 2 1zm-1.8.4c-.6 0-1 .2-1.4.6-.3.4-.5.9-.5 1.5s.2 1.1.5 1.5c.3.4.8.6 1.4.6.5 0 1-.2 1.4-.6.4-.4.6-.9.6-1.6 0-.7-.2-1.2-.6-1.6-.4-.2-.9-.4-1.4-.4zM23 33.8h1.6v9.8H23v-9.8zM31.5 37.6v-.8h1.6v6.8h-1.6v-.7c-.5.6-1.2.9-2 .9-1 0-1.8-.4-2.4-1.1-.6-.7-.9-1.6-.9-2.5 0-1.1.3-1.9 1-2.6.7-.7 1.4-1 2.3-1 .9 0 1.5.3 2 1zm-1.8.4c-.6 0-1 .2-1.4.6-.4.4-.5.9-.5 1.5s.2 1.1.5 1.5c.3.4.8.6 1.4.6.5 0 1-.2 1.4-.6.4-.4.6-.9.6-1.6 0-.7-.2-1.2-.6-1.6-.4-.2-.8-.4-1.4-.4zM35.1 43.6v-6.8h1.6v.6c.2-.2.4-.4.7-.6.3-.2.6-.2 1-.2.5 0 .9.1 1.2.3l-.6 1.4c-.3-.2-.5-.2-.8-.2-.4 0-.7.1-1 .4-.3.3-.4.8-.4 1.6v3.5h-1.7zM40.5 43.6v-6.8H42v.6c.4-.5 1-.8 1.7-.8.8 0 1.4.3 1.8 1 .5-.7 1.1-1 2-1 .9 0 1.5.4 1.9 1.1.2.4.4 1 .4 1.7v4.2h-1.6v-3.7c0-.6 0-1-.1-1.2-.2-.4-.5-.6-.9-.6s-.7.2-.9.5c-.2.3-.3.8-.3 1.5v3.5h-1.6v-3.7c0-.6 0-1-.1-1.2-.3-.5-.6-.7-1-.7s-.7.2-.9.5c-.2.3-.3.8-.3 1.5v3.5h-1.6v.1z"/>
	<path stroke="#003067" stroke-miterlimit="10" d="M39.9 30H24.3v-7.7c0-4.8 3.9-8.3 8.7-7.9 3.7.3 6.9 3.6 7 7.4.1 2.7 0 5.3 0 8-.1 0-.1.1-.1.2z"/>
	<path fill="#003067" d="M31.8 17.9c-2.2.1-4.1 2-4.2 4.3 0 .5.3.8.7.8.4 0 .7-.3.8-.8.1-1.6 1.2-2.7 2.8-2.8.1 0 .3 0 .4-.1.3-.2.5-.5.4-.8-.1-.5-.3-.7-.9-.6zM32.7 10.5v1.6c0 .5-.3.7-.7.7-.4 0-.7-.3-.7-.7V9c0-.5.3-.8.7-.8.4 0 .7.3.7.8.1.4 0 1 0 1.5zM44.3 15.6c-.1.1-.2.3-.4.5-.9.6-1.9 1.1-2.8 1.6-.4.2-.8.1-.9-.2-.2-.3-.1-.7.3-.9.9-.5 1.8-1.1 2.8-1.6.4-.4 1-.1 1 .6zM27.8 13.4c0 .4-.2.6-.5.7-.3.1-.6 0-.8-.3-.4-.6-.7-1.2-1-1.8-.2-.3-.4-.7-.6-1-.2-.4-.1-.8.2-1 .3-.2.7-.1.9.3.5.9 1.1 1.8 1.6 2.8.1.1.2.2.2.3zM38.6 9.9c.6 0 1 .5.7.9-.5 1-1.1 2-1.7 2.9-.2.3-.6.4-.9.2-.3-.2-.4-.6-.2-.9.5-1 1.1-1.9 1.7-2.9.1 0 .3-.1.4-.2zM20.7 14.8c.1 0 .2 0 .3.1.9.5 1.9 1.1 2.8 1.6.3.2.4.4.3.7-.1.2-.3.4-.5.5-.1.1-.4 0-.5 0-1-.5-1.9-1.1-2.9-1.7-.3-.2-.4-.5-.3-.8.2-.2.4-.4.8-.4z"/>
	<path fill="#999" d="m57.1 37.8-5-1.9v.1l.1-.1v.1l.1-.1s-.1-.1-.1-.3c-.1-.2-.1-.4-.1-.6V17.3c0-.2 0-.4.1-.4l-.1-.1v.2h.1l-.1-.1v.2-.2l-.1.2h.1v-.2l-.1.2 5 1.9.3-.8-5-1.8-.5-.4c-.2 0-.3.1-.5.2-.3.3-.4.7-.4 1.1v17.9c0 .3.1.7.2.9.1.3.3.5.6.7l5 1.8.4-.8z"/>
	<path fill="#999" d="M56.9 13.1h-.5v33c0 .6.5 1 1 1h3.9c.5 0 1-.5 1-1v-33c0-.6-.5-1-1-1h-3.9c-.5 0-1 .5-1 1h.9l.1-.1h3.9l.1.1v33l-.1.1h-3.9l-.1-.1v-33h-.4zM7.5 38.6l5-1.8c.4-.2.5-.4.6-.7.1-.3.2-.6.2-.9V17.3c0-.3 0-.6-.2-.8l-.2-.3c-.1-.1-.3-.2-.5-.2h-.2l-5 1.8.3.8 5-1.9-.1-.2v.2h.1l-.1-.2v.2-.2l-.1.2h.1v-.2l-.1.2s.1.2.1.5v17.9c0 .2-.1.5-.1.6l-.1.2v.1-.1.1-.1l-5 1.9.3.8z"/>
	<path fill="#999" d="M6.8 12.5V12H2.9c-.5 0-1 .5-1 1v33c0 .6.5 1 1 1h3.9c.5 0 1-.5 1-1V13c0-.6-.5-1-1-1v1l.1.1v33l-.1.1H2.9l-.1-.1v-33l.1-.1h3.9v-.5z"/>
</svg>
